archdroid-icon-theme/Archdroid-Amber/mimetypes/scalable/text-xml.svg

<svg height="48" viewBox="0 0 48 48" width="48" xmlns="http://www.w3.org/2000/svg"><path d="m12 4c-2.21 0-3.980469 1.79-3.980469 4l-.019531 32c0 2.21 1.770469 4 3.980469 4h24.019531c2.21 0 4-1.79 4-4v-24l-12-12zm14 3 11 11h-11zm-7.408203 18.082031 1.408203 1.166016-3.978516 4.789062 3.978516 4.796875-1.408203 1.166016-4.947266-5.962891zm6.726562 0h1.681641l-4.318359 11.917969h-1.681641zm4.089844 0 4.947266 5.962891-4.947266 5.958984-1.408203-1.166015 3.978516-4.792969-3.978516-4.794922z" fill="#f60" transform=""/></svg>

<svg height="48" version="1.1" viewBox="0 0 48 48" width="48" xmlns="http://www.w3.org/2000/svg"><g transform="translate(0 -1004.3622)"><path d="M12 4C9.79 4 8.019531 5.79 8.019531 8L8 40C8 42.21 9.770469 44 11.980469 44L36 44C38.21 44 40 42.21 40 40L40 16 28 4 12 4zM26 7L37 18 26 18 26 7zM18.591797 25.082031L20 26.248047 16.021484 31.037109 20 35.833984 18.591797 37 13.644531 31.037109 18.591797 25.082031zM25.318359 25.082031L27 25.082031 22.681641 37 21 37 25.318359 25.082031zM29.408203 25.082031L34.355469 31.044922 29.408203 37.003906 28 35.837891 31.978516 31.044922 28 26.25 29.408203 25.082031z" fill="#f60" transform="translate(0 1004.3622)"/></g></svg>
